packages/sources/icons/src/vitamix/arrow-left-right-line.svg

<svg width="16" height="16" viewBox="0 0 16 16" xmlns="http://www.w3.org/2000/svg"><path fill-rule="evenodd" clip-rule="evenodd" d="M6.24267 2.3093L5.3 1.36664L2 4.66664L5.3 7.96664L6.24267 7.02397L4.552 5.3333H13.3333V3.99997H4.552L6.24267 2.3093ZM14 11.3333L10.7 8.03331L9.75733 8.97597L11.448 10.6666H2.66667V12L11.448 11.9993L9.75733 13.6906L10.7 14.6333L14 11.3333Z"/></svg>

<svg width="16" height="16" xmlns="http://www.w3.org/2000/svg"><path fill-rule="evenodd" clip-rule="evenodd" d="M6.243 2.31 5.3 1.366 2 4.667l3.3 3.3.943-.943-1.691-1.69h8.781V4H4.552l1.69-1.69ZM14 11.332l-3.3-3.3-.943.943 1.691 1.69H2.667V12h8.781l-1.69 1.69.942.943 3.3-3.3Z"/></svg>
